;FLAVOR:Marlin
;TIME:2517
;Filament used: 1.22515m
;Layer height: 0.2
;MINX:61.001
;MINY:79.001
;MINZ:0.2
;MAXX:173.999
;MAXY:155.999
;MAXZ:1
;Generated with Cura_SteamEngine 5.2.1
M140 S50
M105
M190 S50
M104 S200
M105
M109 S200
M82 ;absolute extrusion mode
; Ender 3 Custom Start G-code
G92 E0 ; Reset Extruder
G28 ; Home all axes
G1 Z2.0 F3000 ; Move Z Axis up little to prevent scratching of Heat Bed
G1 X0.1 Y20 Z0.3 F5000.0 ; Move to start position
G1 X0.1 Y200.0 Z0.3 F1500.0 E15 ; Draw the first line
G1 X0.4 Y200.0 Z0.3 F5000.0 ; Move to side a little
G1 X0.4 Y20 Z0.3 F1500.0 E30 ; Draw the second line
G92 E0 ; Reset Extruder
G1 Z2.0 F3000 ; Move Z Axis up little to prevent scratching of Heat Bed
G1 X5 Y20 Z0.3 F5000.0 ; Move over to prevent blob squish
G92 E0
G92 E0
G1 F2700 E-5
;LAYER_COUNT:5
;LAYER:0
M107
G0 F6000 X66.201 Y82.137 Z0.2
;TYPE:SKIRT
G1 F2700 E0
G1 F1200 X66.482 Y81.913 E0.01195
G1 X67.24 Y81.36 E0.04316
G1 X67.984 Y80.905 E0.07217
G1 X68.237 Y80.764 E0.0818
G1 X68.832 Y80.452 E0.10414
G1 X69.684 Y80.06 E0.13534
G1 X70.664 Y79.711 E0.16994
G1 X71.215 Y79.544 E0.18909
G1 X72.124 Y79.31 E0.22031
G1 X73.176 Y79.14 E0.25575
G1 X73.576 Y79.095 E0.26914
G1 X74.579 Y79.028 E0.30257
G1 X75.836 Y79.002 E0.34439
G1 X159.443 Y79.001 E3.12517
G1 X159.956 Y79.008 E3.14223
G1 X160.659 Y79.04 E3.16564
G1 X161.43 Y79.1 E3.19136
G1 X162.362 Y79.213 E3.22259
G1 X163.471 Y79.455 E3.26034
G1 X164.105 Y79.637 E3.28228
G1 X164.462 Y79.75 E3.29473
G1 X165.344 Y80.071 E3.32595
G1 X166.33 Y80.537 E3.36222
G1 X166.833 Y80.806 E3.3812
G1 X167.641 Y81.283 E3.4124
G1 X168.377 Y81.805 E3.44241
G1 X168.965 Y82.274 E3.46743
G1 X169.219 Y82.489 E3.4785
G1 X169.908 Y83.125 E3.50969
G1 X170.433 Y83.69 E3.53534
G1 X170.857 Y84.195 E3.55727
G1 X171.082 Y84.477 E3.56927
G1 X171.636 Y85.234 E3.60047
G1 X172.168 Y86.12 E3.63484
G1 X172.446 Y86.636 E3.65434
G1 X172.855 Y87.48 E3.68553
G1 X173.292 Y88.673 E3.72779
G1 X173.459 Y89.226 E3.747
G1 X173.692 Y90.135 E3.77821
G1 X173.859 Y91.17 E3.81308
G1 X173.904 Y91.568 E3.8264
G1 X173.972 Y92.577 E3.86004
G1 X173.998 Y93.836 E3.90192
G1 X173.999 Y141.443 E5.48534
G1 X173.992 Y141.956 E5.5024
G1 X173.959 Y142.677 E5.52641
G1 X173.897 Y143.458 E5.55246
G1 X173.782 Y144.388 E5.58363
G1 X173.59 Y145.306 E5.61483
G1 X173.462 Y145.765 E5.63067
G1 X173.293 Y146.325 E5.65013
G1 X172.984 Y147.211 E5.68134
G1 X172.443 Y148.37 E5.72388
G1 X172.163 Y148.889 E5.74349
G1 X171.683 Y149.695 E5.7747
G1 X170.989 Y150.64 E5.81369
G1 X170.625 Y151.084 E5.83279
G1 X170 Y151.783 E5.86397
G1 X169.3 Y152.442 E5.89595
G1 X168.819 Y152.847 E5.91686
G1 X168.538 Y153.072 E5.92884
G1 X167.782 Y153.626 E5.96001
G1 X166.85 Y154.185 E5.99616
G1 X166.332 Y154.462 E6.0157
G1 X165.487 Y154.869 E6.04689
G1 X164.336 Y155.289 E6.08764
G1 X163.785 Y155.456 E6.10679
G1 X162.876 Y155.69 E6.13801
G1 X161.824 Y155.86 E6.17345
G1 X161.424 Y155.905 E6.18684
G1 X160.421 Y155.972 E6.22028
G1 X159.164 Y155.998 E6.26209
G1 X75.557 Y155.999 E9.04287
G1 X75.044 Y155.992 E9.05994
G1 X74.341 Y155.96 E9.08334
G1 X73.57 Y155.9 E9.10906
G1 X72.638 Y155.787 E9.14029
G1 X71.529 Y155.545 E9.17804
G1 X70.895 Y155.363 E9.19998
G1 X70.538 Y155.25 E9.21244
G1 X69.656 Y154.929 E9.24365
G1 X68.666 Y154.461 E9.28008
G1 X68.156 Y154.188 E9.29932
G1 X67.348 Y153.711 E9.33052
G1 X66.565 Y153.151 E9.36254
G1 X66.353 Y152.985 E9.3715
G1 X65.783 Y152.512 E9.39613
G1 X65.093 Y151.876 E9.42734
G1 X64.583 Y151.328 E9.45224
G1 X64.125 Y150.785 E9.47587
G1 X63.904 Y150.507 E9.48768
G1 X63.353 Y149.749 E9.51885
G1 X62.921 Y149.043 E9.54638
G1 X62.769 Y148.772 E9.55671
G1 X62.433 Y148.131 E9.58078
G1 X62.044 Y147.277 E9.612
G1 X61.76 Y146.493 E9.63973
G1 X61.661 Y146.183 E9.65055
G1 X61.449 Y145.442 E9.67619
G1 X61.241 Y144.527 E9.7074
G1 X61.121 Y143.685 E9.73569
G1 X61.084 Y143.327 E9.74766
G1 X61.028 Y142.423 E9.77778
G1 X61.002 Y141.164 E9.81966
G1 X61.001 Y93.557 E11.40308
G1 X61.008 Y93.044 E11.42014
G1 X61.04 Y92.34 E11.44358
G1 X61.102 Y91.544 E11.47014
G1 X61.215 Y90.613 E11.50133
G1 X61.406 Y89.695 E11.53252
G1 X61.559 Y89.152 E11.55128
G1 X61.727 Y88.608 E11.57022
G1 X62.041 Y87.725 E11.60139
G1 X62.551 Y86.64 E11.64126
G1 X62.825 Y86.131 E11.66049
G1 X63.305 Y85.325 E11.69169
G1 X63.851 Y84.562 E11.7229
G1 X64.01 Y84.359 E11.73147
G1 X64.465 Y83.809 E11.75521
G1 X65.098 Y83.117 E11.78641
G1 X65.692 Y82.565 E11.81338
G1 X66.201 Y82.137 E11.8355
G0 F6000 X66.451 Y82.449
G1 F1200 X66.732 Y82.225 E11.84745
G1 X67.476 Y81.683 E11.87806
G1 X68.179 Y81.255 E11.90544
G1 X68.751 Y80.943 E11.92711
G1 X69.014 Y80.808 E11.93694
G1 X69.851 Y80.423 E11.96758
G1 X70.78 Y80.094 E12.00036
G1 X71.331 Y79.927 E12.01951
G1 X72.223 Y79.698 E12.05014
G1 X73.221 Y79.537 E12.08377
G1 X73.621 Y79.492 E12.09715
G1 X74.587 Y79.428 E12.12935
G1 X75.844 Y79.402 E12.17117
G1 X159.438 Y79.401 E14.95152
G1 X159.951 Y79.408 E14.96858
G1 X160.628 Y79.439 E14.99112
G1 X161.399 Y79.499 E15.01684
G1 X162.313 Y79.61 E15.04747
G1 X163.366 Y79.841 E15.08332
G1 X163.985 Y80.018 E15.10474
G1 X164.342 Y80.131 E15.11719
G1 X165.207 Y80.447 E15.14782
G1 X166.142 Y80.89 E15.18223
G1 X166.645 Y81.159 E15.20121
G1 X167.437 Y81.628 E15.23182
G1 X168.132 Y82.122 E15.26018
G1 X168.706 Y82.579 E15.28458
G1 X168.96 Y82.794 E15.29565
G1 X169.637 Y83.419 E15.3263
G1 X170.13 Y83.952 E15.35044
G1 X170.545 Y84.444 E15.37185
G1 X170.77 Y84.726 E15.38385
G1 X171.312 Y85.47 E15.41447
G1 X171.816 Y86.309 E15.44702
G1 X172.094 Y86.825 E15.46651
G1 X172.495 Y87.654 E15.49714
G1 X172.909 Y88.789 E15.53733
G1 X173.076 Y89.342 E15.55654
G1 X173.304 Y90.234 E15.58716
G1 X173.462 Y91.215 E15.62021
G1 X173.507 Y91.613 E15.63353
G1 X173.572 Y92.585 E15.66593
G1 X173.598 Y93.844 E15.70782
G1 X173.599 Y141.438 E17.2908
G1 X173.592 Y141.951 E17.30786
G1 X173.56 Y142.645 E17.33097
G1 X173.498 Y143.426 E17.35703
G1 X173.385 Y144.34 E17.38766
G1 X173.079 Y145.65 E17.4324
G1 X172.91 Y146.21 E17.45186
G1 X172.606 Y147.079 E17.48248
G1 X172.091 Y148.18 E17.52291
G1 X171.811 Y148.699 E17.54252
G1 X171.339 Y149.489 E17.57313
G1 X170.679 Y150.386 E17.61017
G1 X170.315 Y150.83 E17.62927
G1 X169.701 Y151.516 E17.65989
G1 X169.039 Y152.139 E17.69012
G1 X168.569 Y152.534 E17.71054
G1 X168.288 Y152.759 E17.72251
G1 X167.545 Y153.303 E17.75314
G1 X166.662 Y153.832 E17.78738
G1 X166.144 Y154.109 E17.80692
G1 X165.314 Y154.508 E17.83755
G1 X164.22 Y154.906 E17.87626
G1 X163.669 Y155.073 E17.89541
G1 X162.777 Y155.302 E17.92604
G1 X161.779 Y155.463 E17.95967
G1 X161.379 Y155.508 E17.97306
G1 X160.413 Y155.572 E18.00526
G1 X159.156 Y155.598 E18.04707
G1 X75.562 Y155.599 E20.82742
G1 X75.049 Y155.592 E20.84448
G1 X74.372 Y155.561 E20.86702
G1 X73.601 Y155.501 E20.89275
G1 X72.687 Y155.39 E20.92337
G1 X71.634 Y155.159 E20.95922
G1 X71.015 Y154.982 E20.98064
G1 X70.658 Y154.869 E20.99309
G1 X69.793 Y154.553 E21.02372
G1 X68.855 Y154.108 E21.05825
G1 X68.345 Y153.835 E21.07749
G1 X67.552 Y153.366 E21.10814
G1 X66.812 Y152.836 E21.13841
G1 X66.288 Y152.416 E21.16075
G1 X66.041 Y152.207 E21.17151
G1 X65.365 Y151.582 E21.20213
G1 X64.885 Y151.066 E21.22557
G1 X64.438 Y150.536 E21.24863
G1 X64.217 Y150.258 E21.26044
G1 X63.676 Y149.513 E21.29106
G1 X63.27 Y148.847 E21.31701
G1 X62.913 Y148.193 E21.34179
G1 X62.789 Y147.949 E21.35089
G1 X62.408 Y147.111 E21.38151
G1 X62.141 Y146.372 E21.40764
G1 X62.042 Y146.062 E21.41847
G1 X61.835 Y145.337 E21.44354
G1 X61.632 Y144.439 E21.47416
G1 X61.519 Y143.644 E21.50087
G1 X61.482 Y143.286 E21.51284
G1 X61.428 Y142.415 E21.54187
G1 X61.402 Y141.156 E21.58375
G1 X61.401 Y93.562 E23.16673
G1 X61.408 Y93.049 E23.1838
G1 X61.439 Y92.371 E23.20637
G1 X61.501 Y91.575 E23.23293
G1 X61.612 Y90.661 E23.26355
G1 X61.802 Y89.76 E23.29418
G1 X61.941 Y89.27 E23.31112
G1 X62.109 Y88.726 E23.33005
G1 X62.419 Y87.859 E23.36068
G1 X62.903 Y86.83 E23.3985
G1 X63.177 Y86.321 E23.41773
G1 X63.649 Y85.53 E23.44836
G1 X64.166 Y84.809 E23.47787
G1 X64.559 Y84.318 E23.49879
G1 X64.771 Y84.066 E23.50974
G1 X65.393 Y83.388 E23.54035
G1 X65.954 Y82.868 E23.56579
G1 X66.451 Y82.449 E23.58741
G0 F6000 X66.7 Y82.762
G1 F1200 X66.981 Y82.538 E23.59936
G1 X67.711 Y82.007 E23.62938
G1 X68.373 Y81.604 E23.65516
G1 X68.626 Y81.463 E23.66479
G1 X69.197 Y81.164 E23.68623
G1 X70.018 Y80.787 E23.71628
G1 X70.896 Y80.477 E23.74725
G1 X71.447 Y80.31 E23.7664
G1 X72.322 Y80.086 E23.79644
G1 X73.266 Y79.935 E23.82824
G1 X73.666 Y79.89 E23.84162
G1 X74.595 Y79.828 E23.87259
G1 X75.852 Y79.802 E23.91441
G1 X159.432 Y79.801 E26.69429
G1 X159.945 Y79.808 E26.71136
G1 X160.597 Y79.838 E26.73306
G1 X161.368 Y79.898 E26.75878
G1 X162.265 Y80.008 E26.78884
G1 X163.261 Y80.226 E26.82275
G1 X163.864 Y80.4 E26.84363
G1 X164.221 Y80.513 E26.85608
G1 X165.069 Y80.823 E26.88611
G1 X165.953 Y81.242 E26.91865
G1 X166.456 Y81.511 E26.93762
G1 X167.233 Y81.972 E26.96767
G1 X167.887 Y82.438 E26.99438
G1 X168.448 Y82.885 E27.01824
G1 X168.702 Y83.1 E27.02931
G1 X169.365 Y83.713 E27.05934
G1 X169.828 Y84.213 E27.082
G1 X170.232 Y84.693 E27.10287
G1 X170.457 Y84.975 E27.11487
G1 X170.989 Y85.706 E27.14494
G1 X171.464 Y86.499 E27.17569
G1 X171.742 Y87.015 E27.19518
G1 X172.134 Y87.828 E27.2252
G1 X172.526 Y88.904 E27.26329
G1 X172.693 Y89.457 E27.2825
G1 X172.916 Y90.332 E27.31253
G1 X173.064 Y91.26 E27.34379
G1 X173.109 Y91.658 E27.35711
G1 X173.172 Y92.593 E27.38828
G1 X173.198 Y93.852 E27.43016
G1 X173.199 Y141.432 E29.01268
G1 X173.192 Y141.945 E29.02975
G1 X173.161 Y142.613 E29.05199
G1 X173.099 Y143.394 E29.07804
G1 X172.988 Y144.29 E29.10807
G1 X172.696 Y145.534 E29.15057
G1 X172.527 Y146.094 E29.17003
G1 X172.228 Y146.946 E29.20006
G1 X171.739 Y147.99 E29.23841
G1 X171.459 Y148.509 E29.25802
G1 X170.995 Y149.284 E29.28806
G1 X170.37 Y150.133 E29.32313
G1 X170.006 Y150.577 E29.34222
G1 X169.403 Y151.249 E29.37225
G1 X168.778 Y151.836 E29.40077
G1 X168.319 Y152.222 E29.42072
G1 X168.038 Y152.447 E29.43269
G1 X167.309 Y152.98 E29.46273
G1 X166.473 Y153.48 E29.49513
G1 X165.955 Y153.757 E29.51466
G1 X165.14 Y154.147 E29.54471
G1 X164.104 Y154.523 E29.58137
G1 X163.553 Y154.69 E29.60052
G1 X162.678 Y154.914 E29.63056
G1 X161.734 Y155.065 E29.66236
G1 X161.334 Y155.11 E29.67575
G1 X160.405 Y155.172 E29.70671
G1 X159.148 Y155.198 E29.74853
G1 X75.568 Y155.199 E32.52841
G1 X75.055 Y155.192 E32.54548
G1 X74.403 Y155.162 E32.56719
G1 X73.632 Y155.102 E32.59291
G1 X72.735 Y154.992 E32.62296
G1 X71.739 Y154.774 E32.65688
G1 X71.136 Y154.6 E32.67775
G1 X70.779 Y154.487 E32.6902
G1 X69.931 Y154.177 E32.72023
G1 X69.043 Y153.756 E32.75292
G1 X68.533 Y153.483 E32.77216
G1 X67.757 Y153.022 E32.80218
G1 X67.059 Y152.521 E32.83076
G1 X66.546 Y152.111 E32.8526
G1 X66.299 Y151.902 E32.86336
G1 X65.636 Y151.288 E32.89342
G1 X65.187 Y150.804 E32.91538
G1 X64.752 Y150.287 E32.93785
G1 X64.531 Y150.009 E32.94966
G1 X64 Y149.278 E32.97971
G1 X63.619 Y148.652 E33.00408
G1 X63.467 Y148.381 E33.01442
G1 X63.146 Y147.768 E33.03743
G1 X62.773 Y146.946 E33.06746
G1 X62.522 Y146.25 E33.09207
G1 X62.423 Y145.94 E33.10289
G1 X62.221 Y145.232 E33.12738
G1 X62.023 Y144.351 E33.15741
G1 X61.917 Y143.603 E33.18254
G1 X61.88 Y143.245 E33.19451
G1 X61.828 Y142.407 E33.22243
G1 X61.802 Y141.148 E33.26432
G1 X61.801 Y93.568 E34.84683
G1 X61.808 Y93.055 E34.8639
G1 X61.838 Y92.402 E34.88564
G1 X61.9 Y91.606 E34.91219
G1 X62.01 Y90.71 E34.94222
G1 X62.198 Y89.826 E34.97228
G1 X62.323 Y89.388 E34.98743
G1 X62.491 Y88.844 E35.00637
G1 X62.796 Y87.994 E35.0364
G1 X63.256 Y87.019 E35.07226
G1 X63.53 Y86.51 E35.09148
G1 X63.992 Y85.735 E35.12149
G1 X64.481 Y85.055 E35.14935
G1 X64.64 Y84.852 E35.15793
G1 X65.077 Y84.324 E35.18072
G1 X65.688 Y83.659 E35.21076
G1 X66.215 Y83.17 E35.23467
G1 X66.7 Y82.762 E35.25575
G1 F2700 E30.25575
;MESH:Christmas_v3.stl
G0 F6000 X88.714 Y95.823
G0 X91.002 Y99.275
;TYPE:WALL-INNER
G1 F2700 E35.25575
G1 F1200 X90.732 Y99.473 E35.26689
G1 X90.526 Y99.509 E35.27384
G1 X89.192 Y99.507 E35.31821
G1 X88.922 Y99.354 E35.32853
G1 X88.825 Y99.24 E35.33351
G1 X88.726 Y98.981 E35.34273
G1 X88.73 Y97.831 E35.38098
G1 X88.815 Y97.609 E35.38889
G1 X88.73 Y97.387 E35.3968
G1 X88.726 Y96.276 E35.43375
G1 X88.758 Y96.114 E35.43924
G1 X88.856 Y95.935 E35.44603
G1 X89.042 Y95.779 E35.4541
G1 X89.248 Y95.708 E35.46135
G1 X90.643 Y95.708 E35.50775
G1 X90.885 Y95.827 E35.51672
G1 X91.069 Y96.048 E35.52628
G1 X91.126 Y96.309 E35.53517
G1 X91.127 Y97.417 E35.57202
G1 X91.035 Y97.609 E35.5791
G1 X91.123 Y97.792 E35.58585
G1 X91.126 Y98.983 E35.62547
G1 X91.002 Y99.275 E35.63602
G0 F6000 X90.685 Y99.031
;TYPE:WALL-OUTER
G1 F1200 X90.579 Y99.109 E35.6404
G1 X89.308 Y99.109 E35.68267
G1 X89.159 Y99.02 E35.68844
G1 X89.128 Y98.944 E35.69117
G1 X89.127 Y97.865 E35.72706
G1 X89.226 Y97.725 E35.73276
G1 X89.226 Y97.493 E35.74048
G1 X89.126 Y97.351 E35.74626
G1 X89.126 Y96.262 E35.78248
G1 X89.169 Y96.184 E35.78544
G1 X89.291 Y96.111 E35.79017
G1 X90.565 Y96.108 E35.83254
G1 X90.726 Y96.245 E35.83957
G1 X90.727 Y97.346 E35.87619
G1 X90.627 Y97.493 E35.88211
G1 X90.627 Y97.725 E35.88982
G1 X90.727 Y97.872 E35.89573
G1 X90.724 Y98.944 E35.93139
G1 X90.685 Y99.031 E35.93456
G1 F2700 E30.93456
G0 F6000 X91.227 Y98.813
G0 X95.647 Y99.044
G0 X95.837 Y99.391
G0 X97.689 Y100
;TYPE:WALL-INNER
G1 F2700 E35.93456
G1 F1200 X98.762 Y98.283 E36.0019
G1 X98.911 Y98.144 E36.00868
G1 X98.708 Y98.16 E36.01545
G1 X96.718 Y97.779 E36.08284
G1 X96.82 Y98.363 E36.10256
G1 X97.029 Y98.965 E36.12376
G1 X97.329 Y99.528 E36.14497
G1 X97.689 Y100 E36.16472
G1 F2700 E31.16472
G0 F6000 X97.802 Y99.628
G0 X97.723 Y100.301
G0 X96.983 Y101.084
G0 X98.076 Y102.905
G0 X99.78 Y104.686
G1 F2700 E36.16472
G1 F1200 X99.93 Y104.536 E36.17177
G1 X99.93 Y104.036 E36.1884
G1 X99.78 Y103.886 E36.19546
G1 X99.307 Y103.841 E36.21126
G1 X99.137 Y103.721 E36.21818
G1 X98.916 Y103.85 E36.22669
G1 X98.557 Y104.211 E36.24363
G1 X98.23 Y104.286 E36.25479
G1 X98.557 Y104.361 E36.26594
G1 X98.879 Y104.686 E36.28116
G1 X99.78 Y104.686 E36.31113
G1 F2700 E31.31113
G0 F6000 X99.79 Y104.534
G0 X100.112 Y103.959
G0 X100.877 Y103.193
G0 X101.969 Y102.468
G0 X101.778 Y101.401
G0 X102.882 Y100.993
G0 X103.404 Y101.388
G1 F2700 E36.31113
G0 F6000 X103.754 Y102.284
G1 F1012.7 X104.56 Y102.04 E36.34432
G1 F961.9 X105.983 Y101.712 E36.40491
G1 F1066.7 X106.322 Y101.767 E36.41776
G1 F1197 X106.642 Y101.939 E36.42987
G1 F1200 X106.832 Y101.985 E36.43638
G1 X107.198 Y101.928 E36.4487
G1 X107.495 Y101.7 E36.46115
G1 X107.588 Y101.544 E36.46719
G1 X107.648 Y101.169 E36.47982
G1 X107.517 Y100.816 E36.49234
G1 X107.236 Y100.575 E36.50466
G1 X106.871 Y100.501 E36.51704
G1 X106.516 Y100.616 E36.52946
G1 X106.366 Y100.735 E36.53582
G1 F1197 X106.144 Y101.033 E36.54821
G1 F1066.7 X105.871 Y101.226 E36.56072
G1 F961.9 X104.449 Y101.554 E36.62128
G1 F1069 X104.005 Y101.442 E36.63837
G1 F1124.1 X103.703 Y101.211 E36.65187
G1 X103.567 Y100.597 E36.6742
G1 F1200 X103.552 Y100.284 E36.68462
G1 X103.611 Y100.115 E36.69058
G1 X104.091 Y99.467 E36.7174
G1 X104.397 Y98.862 E36.73995
G1 X104.597 Y98.215 E36.76247
G1 X104.685 Y97.544 E36.78498
G1 X104.657 Y96.865 E36.80758
G1 X104.515 Y96.203 E36.8301
G1 X104.264 Y95.573 E36.85266
G1 X103.911 Y94.997 E36.87513
G1 X103.465 Y94.49 E36.89758
G1 X102.935 Y94.06 E36.92028
G1 X102.346 Y93.728 E36.94277
G1 X101.71 Y93.501 E36.96523
G1 X100.908 Y93.359 E36.99232
G1 X100.738 Y93.269 E36.99872
G1 X100.691 Y93.185 E37.00192
G1 X100.644 Y93.269 E37.00512
G1 X100.474 Y93.359 E37.01152
G1 X99.686 Y93.498 E37.03813
G1 X99.054 Y93.72 E37.06041
G1 X98.469 Y94.046 E37.08269
G1 X97.94 Y94.467 E37.10517
G1 X97.494 Y94.966 E37.12743
G1 X97.147 Y95.519 E37.14915
G1 X99.199 Y95.913 E37.21865
G1 X99.335 Y95.972 E37.22358
G1 X99.558 Y96.208 E37.23438
G1 X99.626 Y96.525 E37.24516
G1 X99.41 Y97.682 E37.28431
G1 X99.247 Y97.998 E37.29613
G1 X99.59 Y98.092 E37.30796
G1 X100.549 Y98.694 E37.34562
G1 X100.715 Y98.87 E37.35367
G1 X100.803 Y99.165 E37.36391
G1 X100.766 Y99.417 E37.37238
G1 X99.639 Y101.225 E37.44324
G1 X100.336 Y101.347 E37.46677
G1 X101.034 Y101.349 E37.48999
G1 X101.731 Y101.225 E37.51353
G1 X102.463 Y100.964 E37.53938
G1 X102.66 Y100.947 E37.54596
